picto/bike-station-right-framed.svg

<svg class="color-immutable" width="30" height="30" viewBox="0 0 30 30" fill="none" xmlns="http://www.w3.org/2000/svg"><path d="M30 30H0V0H30V30Z" fill="#2D327D"/><path d="M25.5 3C26.325 3 27 3.675 27 4.5V25.5C27 26.325 26.325 27 25.5 27H4.5C3.675 27 3 26.325 3 25.5V4.5C3 3.675 3.675 3 4.5 3H25.5ZM25.5 2.625H4.5C3.46613 2.625 2.625 3.46613 2.625 4.5V25.5C2.625 26.5339 3.46613 27.375 4.5 27.375H25.5C26.5339 27.375 27.375 26.5339 27.375 25.5V4.5C27.375 3.46613 26.5339 2.625 25.5 2.625Z" fill="white"/><path d="M12.375 8.43749L13.125 9.18749L13.875 8.43749L14.625 9.18749L15.5625 8.24999L14.625 7.31249H10.3364C9.9784 6.51682 9.17912 5.96249 8.25002 5.96249C6.98665 5.96249 5.96252 6.98662 5.96252 8.24999C5.96252 9.51337 6.98665 10.5375 8.25002 10.5375C9.1792 10.5375 9.9784 9.98317 10.3364 9.18749H11.625L12.375 8.43749ZM7.12502 8.99999C6.7108 8.99999 6.37502 8.66422 6.37502 8.24999C6.37502 7.83577 6.7108 7.49999 7.12502 7.49999C7.53925 7.49999 7.87502 7.83577 7.87502 8.24999C7.87502 8.66422 7.53925 8.99999 7.12502 8.99999Z" fill="white"/><path d="M24 15.4875V14.25L15 10.125L6 14.25V15.4875L15 11.3625L24 15.4875Z" fill="white"/><path d="M13.2634 15.9461L11.6792 16.5002C11.6451 16.5131 11.6076 16.5188 11.5709 16.5188C11.4613 16.5188 11.3598 16.4642 11.2988 16.3733L10.9428 15.8453C10.9135 15.8015 10.8988 15.7502 10.8988 15.6991C10.8988 15.5537 11.016 15.4359 11.1606 15.4359H13.1763C13.3219 15.4359 13.4397 15.5537 13.4397 15.6991C13.4397 15.8105 13.3683 15.9095 13.2634 15.9461Z" fill="white"/><path d="M18.8069 15.9609H16.5094V15.4359H18.8069C18.9516 15.4359 19.0688 15.5535 19.0688 15.6988C19.0688 15.8432 18.9516 15.9609 18.8069 15.9609Z" fill="white"/><path d="M18.8066 16.8137H18.4781C18.3333 16.8137 18.2153 16.6961 18.2153 16.5515C18.2153 16.4064 18.3333 16.2887 18.4781 16.2887H18.8066C18.9514 16.2887 19.0685 16.4063 19.0685 16.5515C19.0685 16.696 18.9514 16.8137 18.8066 16.8137Z" fill="white"/><path d="M10.3408 17.5681C8.56552 17.5681 7.125 19.0085 7.125 20.7844C7.125 22.5586 8.56552 23.9999 10.3408 23.9999C12.0023 23.9999 13.3906 22.7341 13.5425 21.0794H14.2271C14.3677 21.3791 14.6693 21.5717 15.0009 21.5717C15.4708 21.5717 15.8534 21.1889 15.8534 20.7186C15.8534 20.5269 15.7892 20.3417 15.6705 20.1915L17.3906 17.634L17.7436 18.201C16.9258 18.8087 16.4444 19.7657 16.4444 20.7845C16.4444 22.5587 17.8849 24 19.6594 24C21.4346 24 22.8749 22.5587 22.8749 20.7845C22.8749 19.0086 21.4346 17.5682 19.6594 17.5682C19.148 17.5682 18.644 17.69 18.1896 17.9239L17.5598 16.9126H12.4412L11.8112 17.9239C11.3568 17.69 10.8521 17.5681 10.3408 17.5681ZM16.9688 20.7844C16.9688 19.9477 17.3581 19.1588 18.0215 18.6494L19.4367 20.9225C19.4847 20.9996 19.5684 21.0469 19.6595 21.0469C19.805 21.0469 19.9219 20.9291 19.9219 20.7844C19.9219 20.7349 19.9081 20.6869 19.883 20.6454L18.4677 18.3715C18.8385 18.1888 19.2458 18.0936 19.6595 18.0936C21.1445 18.0936 22.3508 19.2986 22.3508 20.7844C22.3508 22.2695 21.1445 23.475 19.6595 23.475C18.1743 23.475 16.9688 22.2695 16.9688 20.7844ZM14.7652 19.8981L13.1102 17.4373H16.8899L15.235 19.8981C15.1586 19.8761 15.0797 19.8656 15.001 19.8656C14.9205 19.8656 14.8416 19.8761 14.7652 19.8981ZM13.5484 20.5544C13.4808 19.6194 13.0094 18.7598 12.2565 18.2009L12.6101 17.6339L14.3295 20.1914C14.2456 20.297 14.1889 20.4221 14.1628 20.5544H13.5484ZM11.9787 18.6494C12.5786 19.1093 12.9574 19.8007 13.0216 20.5544H10.7926L11.9787 18.6494ZM10.3408 23.475C8.85563 23.475 7.65105 22.2695 7.65105 20.7844C7.65105 19.2986 8.85563 18.0936 10.3408 18.0936C10.7545 18.0936 11.1626 18.1888 11.5331 18.3715L10.3577 20.2596C10.3529 20.2587 10.3464 20.2587 10.3408 20.2587C10.0514 20.2587 9.81652 20.4944 9.81652 20.7844C9.81652 21.0735 10.0514 21.3092 10.3408 21.3092C10.5146 21.3092 10.6772 21.2231 10.7748 21.0794H13.016C12.8647 22.4424 11.7129 23.475 10.3408 23.475Z" fill="white"/></svg>

<svg class="color-immutable" width="30" height="30" viewBox="0 0 30 30" fill="none" xmlns="http://www.w3.org/2000/svg"><g clip-path="url(#a)"><path d="M30 30H0V0h30v30Z" fill="#2D327D"/><path d="M25.5 3c.825 0 1.5.675 1.5 1.5v21c0 .825-.675 1.5-1.5 1.5h-21c-.825 0-1.5-.675-1.5-1.5v-21C3 3.675 3.675 3 4.5 3h21Zm0-.375h-21A1.877 1.877 0 0 0 2.625 4.5v21c0 1.034.841 1.875 1.875 1.875h21a1.877 1.877 0 0 0 1.875-1.875v-21A1.877 1.877 0 0 0 25.5 2.625Z" fill="#fff"/><path d="m12.375 8.437.75.75.75-.75.75.75.938-.937-.938-.938h-4.289a2.287 2.287 0 1 0 0 1.875h1.289l.75-.75ZM7.125 9a.75.75 0 1 1 0-1.5.75.75 0 0 1 0 1.5ZM24 15.488V14.25l-9-4.125-9 4.125v1.238l9-4.125 9 4.125Z" fill="#fff"/><path d="m13.263 15.946-1.584.554a.327.327 0 0 1-.38-.127l-.356-.528a.263.263 0 0 1 .218-.41h2.015a.262.262 0 0 1 .087.51ZM18.807 15.96h-2.298v-.524h2.298a.262.262 0 0 1 0 .525ZM18.807 16.814h-.329a.263.263 0 0 1 0-.525h.329a.262.262 0 0 1 0 .525ZM10.34 17.568a3.217 3.217 0 0 0 0 6.432 3.215 3.215 0 0 0 3.203-2.92h.684a.854.854 0 1 0 1.443-.888l1.72-2.558.354.567A3.217 3.217 0 0 0 19.659 24a3.217 3.217 0 0 0 0-6.432c-.511 0-1.015.122-1.47.356l-.63-1.011h-5.118l-.63 1.01a3.214 3.214 0 0 0-1.47-.355Zm6.629 3.216c0-.836.39-1.625 1.052-2.135l1.416 2.273a.262.262 0 1 0 .446-.277l-1.415-2.273a2.692 2.692 0 0 1 3.883 2.413 2.692 2.692 0 0 1-5.382 0Zm-2.204-.886-1.655-2.46h3.78l-1.655 2.46a.846.846 0 0 0-.47 0Zm-1.217.656a3.22 3.22 0 0 0-1.291-2.353l.353-.567 1.72 2.557a.847.847 0 0 0-.167.363h-.615Zm-1.57-1.905c.6.46.98 1.152 1.044 1.905h-2.23l1.187-1.905Zm-1.637 4.826a2.691 2.691 0 1 1 1.192-5.104l-1.175 1.889-.017-.001a.525.525 0 1 0 .434.82h2.241a2.692 2.692 0 0 1-2.675 2.396Z" fill="#fff"/></g><defs><clipPath id="a"><path fill="#fff" d="M0 0h30v30H0z"/></clipPath></defs></svg>
